X: 2
T: The Fair-haired Lass
R: reel
M: 4/4
L: 1/8
K: Amix
ea~a2 g3f|ea~a2 ABcd|ea~a2 efge|agec d2cd:|:eAfA g3f|eAcA B2GB|ABcd eg~g2|agec d2cd|eAfA gAfA|eAcA B2GB|ABcd eg~g2|agec d2cd||


Tune 1231	Setting 14533

